Papirus/64x64/apps/mpz.svg

<?xml version="1.0" encoding="UTF-8" standalone="no"?>
<svg
   id="_图层_1"
   version="1.1"
   viewBox="0 0 64 64" width="64" height="64"
   sodipodi:docname="mpz.svg"
   xml:space="preserve"
   inkscape:version="1.4 (e7c3feb100, 2024-10-09)"
   xmlns:inkscape="http://www.inkscape.org/namespaces/inkscape"
   xmlns:sodipodi="http://sodipodi.sourceforge.net/DTD/sodipodi-0.dtd"
   xmlns="http://www.w3.org/2000/svg"
   xmlns:svg="http://www.w3.org/2000/svg"><sodipodi:namedview
     id="namedview26"
     pagecolor="#505050"
     bordercolor="#eeeeee"
     borderopacity="1"
     inkscape:showpageshadow="0"
     inkscape:pageopacity="0"
     inkscape:pagecheckerboard="0"
     inkscape:deskcolor="#505050"
     inkscape:zoom="8.453125"
     inkscape:cx="32"
     inkscape:cy="24.428835"
     inkscape:window-width="1421"
     inkscape:window-height="796"
     inkscape:window-x="751"
     inkscape:window-y="88"
     inkscape:window-maximized="0"
     inkscape:current-layer="_图层_1" /><!-- Generator: Adobe Illustrator 29.0.1, SVG Export Plug-In . SVG Version: 2.1.0 Build 192)  --><defs
     id="defs6"><style
       id="style1">
      .st0 {
        fill-opacity: .5;
      }

      .st0, .st1, .st2, .st3, .st4, .st5, .st6, .st7 {
        fill: #fff;
      }

      .st8 {
        fill: #133c9a;
      }

      .st2, .st9 {
        display: none;
      }

      .st3 {
        fill-opacity: .2;
      }

      .st4 {
        fill-opacity: .9;
      }

      .st10 {
        fill: #3370ff;
      }

      .st11 {
        fill: url(#_未命名的渐变_3);
      }

      .st12 {
        fill: url(#_未命名的渐变);
      }

      .st5 {
        fill-opacity: .3;
      }

      .st6 {
        fill-opacity: 0;
      }

      .st7 {
        fill-opacity: .7;
      }

      .st13 {
        fill: #00d6b9;
      }

      .st14 {
        fill: url(#_未命名的渐变_2);
      }
    </style><radialGradient
       id="_未命名的渐变"
       data-name="未命名的渐变"
       cx="123.9"
       cy="-40.2"
       fx="123.9"
       fy="-40.2"
       r="59.4"
       gradientTransform="translate(-26.8 25.5) scale(.6 -.7)"
       gradientUnits="userSpaceOnUse"><stop
         offset="0"
         stop-color="#db202e"
         id="stop1" /><stop
         offset="1"
         stop-color="#e01b24"
         id="stop2" /></radialGradient><radialGradient
       id="_未命名的渐变_2"
       data-name="未命名的渐变 2"
       cx="67.6"
       cy="26.8"
       fx="67.6"
       fy="26.8"
       r="105.2"
       gradientTransform="translate(-26.6 25.3) scale(.6 -.7)"
       gradientUnits="userSpaceOnUse"><stop
         offset="0"
         stop-color="#ffb648"
         id="stop3" /><stop
         offset="1"
         stop-color="#ff7800"
         stop-opacity="0"
         id="stop4" /></radialGradient><radialGradient
       id="_未命名的渐变_3"
       data-name="未命名的渐变 3"
       cx="61.7"
       cy="18.6"
       fx="61.7"
       fy="18.6"
       r="68"
       gradientTransform="translate(-26.8 25.8) scale(.6 -.7)"
       gradientUnits="userSpaceOnUse"><stop
         offset="0"
         stop-color="#c64600"
         id="stop5" /><stop
         offset="1"
         stop-color="#a51d2d"
         id="stop6" /></radialGradient></defs><path
     class="st1"
     d="M47.5,64.1H13.8c-7.6,0-13.8-6.3-13.8-13.8V13.7C0,6.2,6.2,0,13.7,0h36.6c7.5,0,13.7,6.2,13.7,13.7v36.6c0,7.5-6.2,13.7-13.7,13.7h-2.9.1Z"
     id="path6"
     style="fill:#792d72;fill-opacity:1" /><g
     id="g37"
     transform="matrix(1.1040219,0,0,1.106269,-3.2695519,-3.3030954)"><path
       style="opacity:0.2"
       d="M 27.285156,14 C 26.074428,14.000121 25.000122,14.980678 25,16.191406 V 26 H 15.191406 C 13.980678,26.000122 13.000121,27.074428 13,28.285156 v 9.429688 C 13.000121,38.925572 13.980678,39.999878 15.191406,40 H 25 v 9.808594 C 25.00012,51.019322 26.074428,51.99988 27.285156,52 h 9.429688 C 37.925572,51.99988 38.99988,51.019322 39,49.808594 V 40 h 9.808594 C 50.019322,39.99988 50.99988,38.925572 51,37.714844 V 28.285156 C 50.99988,27.074428 50.019322,26.00012 48.808594,26 H 39 V 16.191406 C 38.999878,14.980678 37.925572,14.000121 36.714844,14 Z M 29,18 h 6 v 9.75 A 2.2502252,2.2502252 0 0 0 37.25,30 H 47 v 6 H 37.25 A 2.2502252,2.2502252 0 0 0 35,38.25 V 48 H 29 V 38.25 A 2.2502252,2.2502252 0 0 0 26.75,36 H 17 v -6 h 9.75 A 2.2502252,2.2502252 0 0 0 29,27.75 Z"
       id="path2-2" /><path
       style="fill:#fcd600"
       d="M 27.285156,13 C 26.074428,13.000121 25.000122,13.980678 25,15.191406 V 25 H 15.191406 C 13.980678,25.000122 13.000121,26.074428 13,27.285156 v 9.429688 C 13.000121,37.925572 13.980678,38.999878 15.191406,39 H 25 v 9.808594 C 25.00012,50.019322 26.074428,50.99988 27.285156,51 h 9.429688 C 37.925572,50.99988 38.99988,50.019322 39,48.808594 V 39 h 9.808594 C 50.019322,38.99988 50.99988,37.925572 51,36.714844 V 27.285156 C 50.99988,26.074428 50.019322,25.00012 48.808594,25 H 39 V 15.191406 C 38.999878,13.980678 37.925572,13.000121 36.714844,13 Z M 29,17 h 6 v 9.75 A 2.2502252,2.2502252 0 0 0 37.25,29 H 47 v 6 H 37.25 A 2.2502252,2.2502252 0 0 0 35,37.25 V 47 H 29 V 37.25 A 2.2502252,2.2502252 0 0 0 26.75,35 H 17 v -6 h 9.75 A 2.2502252,2.2502252 0 0 0 29,26.75 Z"
       id="path3-8" /><path
       style="opacity:0.2;fill:#ffffff"
       d="M 27.285156,13 C 26.074428,13.000121 25.000122,13.980678 25,15.191406 v 1 C 25.000122,14.980678 26.074428,14.000121 27.285156,14 h 9.429688 c 1.210728,1.21e-4 2.285034,0.980678 2.285156,2.191406 v -1 C 38.999878,13.980678 37.925572,13.000121 36.714844,13 Z M 15.191406,25 C 13.980678,25.000122 13.000121,26.074428 13,27.285156 v 1 C 13.000121,27.074428 13.980678,26.000122 15.191406,26 H 25 V 25 Z M 39,25 v 1 h 9.808594 C 50.019322,26.00012 50.99988,27.074428 51,28.285156 v -1 C 50.99988,26.074428 50.019322,25.00012 48.808594,25 Z M 17,35 v 1 h 9.75 A 2.2502252,2.2502252 0 0 1 29,38.25 v -1 A 2.2502252,2.2502252 0 0 0 26.75,35 Z m 20.25,0 A 2.2502252,2.2502252 0 0 0 35,37.25 v 1 A 2.2502252,2.2502252 0 0 1 37.25,36 H 47 V 35 Z M 29,47 v 1 h 6 v -1 z"
       id="path5" /></g></svg>

<svg xmlns="http://www.w3.org/2000/svg" width="64" height="64" version="1.1">
 <circle style="opacity:0.2" cx="32" cy="33" r="29"/>
 <circle style="fill:#792d72" cx="32" cy="32" r="29"/>
 <path style="opacity:0.2" d="M 27.285156,14 C 26.074428,14.000121 25.000122,14.980678 25,16.191406 V 26 H 15.191406 C 13.980678,26.000122 13.000121,27.074428 13,28.285156 v 9.429688 C 13.000121,38.925572 13.980678,39.999878 15.191406,40 H 25 v 9.808594 C 25.00012,51.019322 26.074428,51.99988 27.285156,52 h 9.429688 C 37.925572,51.99988 38.99988,51.019322 39,49.808594 V 40 h 9.808594 C 50.019322,39.99988 50.99988,38.925572 51,37.714844 V 28.285156 C 50.99988,27.074428 50.019322,26.00012 48.808594,26 H 39 V 16.191406 C 38.999878,14.980678 37.925572,14.000121 36.714844,14 Z M 29,18 h 6 v 9.75 A 2.2502252,2.2502252 0 0 0 37.25,30 H 47 v 6 H 37.25 A 2.2502252,2.2502252 0 0 0 35,38.25 V 48 H 29 V 38.25 A 2.2502252,2.2502252 0 0 0 26.75,36 H 17 v -6 h 9.75 A 2.2502252,2.2502252 0 0 0 29,27.75 Z"/>
 <path style="fill:#fcd600" d="M 27.285156,13 C 26.074428,13.000121 25.000122,13.980678 25,15.191406 V 25 H 15.191406 C 13.980678,25.000122 13.000121,26.074428 13,27.285156 v 9.429688 C 13.000121,37.925572 13.980678,38.999878 15.191406,39 H 25 v 9.808594 C 25.00012,50.019322 26.074428,50.99988 27.285156,51 h 9.429688 C 37.925572,50.99988 38.99988,50.019322 39,48.808594 V 39 h 9.808594 C 50.019322,38.99988 50.99988,37.925572 51,36.714844 V 27.285156 C 50.99988,26.074428 50.019322,25.00012 48.808594,25 H 39 V 15.191406 C 38.999878,13.980678 37.925572,13.000121 36.714844,13 Z M 29,17 h 6 v 9.75 A 2.2502252,2.2502252 0 0 0 37.25,29 H 47 v 6 H 37.25 A 2.2502252,2.2502252 0 0 0 35,37.25 V 47 H 29 V 37.25 A 2.2502252,2.2502252 0 0 0 26.75,35 H 17 v -6 h 9.75 A 2.2502252,2.2502252 0 0 0 29,26.75 Z"/>
 <path style="opacity:0.1;fill:#ffffff" d="M 32 3 A 29 29 0 0 0 3 32 A 29 29 0 0 0 3.0175781 32.488281 A 29 29 0 0 1 32 4 A 29 29 0 0 1 60.974609 32.494141 A 29 29 0 0 0 61 32 A 29 29 0 0 0 32 3 z"/>
 <path style="opacity:0.2;fill:#ffffff" d="M 27.285156 13 C 26.074428 13.000121 25.000122 13.980678 25 15.191406 L 25 16.191406 C 25.000122 14.980678 26.074428 14.000121 27.285156 14 L 36.714844 14 C 37.925572 14.000121 38.999878 14.980678 39 16.191406 L 39 15.191406 C 38.999878 13.980678 37.925572 13.000121 36.714844 13 L 27.285156 13 z M 15.191406 25 C 13.980678 25.000122 13.000121 26.074428 13 27.285156 L 13 28.285156 C 13.000121 27.074428 13.980678 26.000122 15.191406 26 L 25 26 L 25 25 L 15.191406 25 z M 39 25 L 39 26 L 48.808594 26 C 50.019322 26.00012 50.99988 27.074428 51 28.285156 L 51 27.285156 C 50.99988 26.074428 50.019322 25.00012 48.808594 25 L 39 25 z M 17 35 L 17 36 L 26.75 36 A 2.2502252 2.2502252 0 0 1 29 38.25 L 29 37.25 A 2.2502252 2.2502252 0 0 0 26.75 35 L 17 35 z M 37.25 35 A 2.2502252 2.2502252 0 0 0 35 37.25 L 35 38.25 A 2.2502252 2.2502252 0 0 1 37.25 36 L 47 36 L 47 35 L 37.25 35 z M 29 47 L 29 48 L 35 48 L 35 47 L 29 47 z"/>
</svg>
